svg/weather/snowman_fill.svg

<?xml version="1.0" encoding="UTF-8"?>
<svg width="24px" height="24px" viewBox="0 0 24 24" version="1.1" xmlns="http://www.w3.org/2000/svg" xmlns:xlink="http://www.w3.org/1999/xlink">
    <title>snowman_fill</title>
    <g id="Icon" stroke="none" stroke-width="1" fill="none" fill-rule="evenodd">
        <g id="Weather" transform="translate(-864.000000, -48.000000)">
            <g id="snowman_fill" transform="translate(864.000000, 48.000000)">
                <path d="M24,0 L24,24 L0,24 L0,0 L24,0 Z M12.5935,23.2578 L12.5819,23.2595 L12.5109,23.295 L12.4919,23.2987 L12.4767,23.295 L12.4057,23.2595 C12.3958,23.2564 12.387,23.259 12.3821,23.2649 L12.378,23.2758 L12.3609,23.7031 L12.3659,23.7235 L12.3769,23.7357 L12.4805,23.8097 L12.4953,23.8136 L12.5071,23.8097 L12.6107,23.7357 L12.6233,23.7197 L12.6267,23.7031 L12.6096,23.2758 C12.6076,23.2657 12.601,23.2593 12.5935,23.2578 Z M12.8584,23.1453 L12.8445,23.1473 L12.6598,23.2397 L12.6499,23.2499 L12.6472,23.2611 L12.6651,23.6906 L12.6699,23.7034 L12.6784,23.7105 L12.8793,23.8032 C12.8914,23.8069 12.9022,23.803 12.9078,23.7952 L12.9118,23.7812 L12.8777,23.1665 C12.8753,23.1546 12.8674,23.147 12.8584,23.1453 Z M12.143,23.1473 C12.1332,23.1424 12.1222,23.1453 12.1156,23.1526 L12.1099,23.1665 L12.0758,23.7812 C12.0751,23.7927 12.0828,23.8019 12.0926,23.8046 L12.1083,23.8032 L12.3092,23.7105 L12.3186,23.7024 L12.3225,23.6906 L12.3404,23.2611 L12.3372,23.2485 L12.3278,23.2397 L12.143,23.1473 Z" id="MingCute" fill-rule="nonzero"></path>
                <path d="M12,2 C14.7614,2 17,4.23858 17,7 C17,7.91035 16.7561,8.76473 16.3307,9.50025 C16.7572,9.83655833 17.1437694,10.2215542 17.4819593,10.6468521 L17.679,10.9068 L19.2929,9.29289 C19.6834,8.90237 20.3166,8.90237 20.7071,9.29289 C21.0675615,9.65337923 21.0952893,10.2206235 20.7902834,10.6128976 L20.7071,10.7071 L18.7071,12.7071 L18.6374,12.7706 L18.6374,12.7706 C18.8725,13.4707 19,14.2204 19,15 C19,18.866 15.866,22 12,22 C8.13401,22 5,18.866 5,15 C5,14.2204 5.12747,13.4707 5.36259,12.7706 L5.29289,12.7071 L3.29289,10.7071 C2.90237,10.3166 2.90237,9.68342 3.29289,9.29289 C3.65337923,8.93241 4.22060645,8.90468077 4.61290152,9.20970231 L4.70711,9.29289 L6.32102,10.9068 C6.70321,10.3775 7.15749,9.90382 7.66929,9.50025 C7.2439,8.76473 7,7.91034 7,7 C7,4.23858 9.23858,2 12,2 Z M12,16 C11.4477,16 11,16.4477 11,17 C11,17.5523 11.4477,18 12,18 C12.5523,18 13,17.5523 13,17 C13,16.4477 12.5523,16 12,16 Z M12,13 C11.4477,13 11,13.4477 11,14 C11,14.5523 11.4477,15 12,15 C12.5523,15 13,14.5523 13,14 C13,13.4477 12.5523,13 12,13 Z M11.7929,6.79289 L11.2929,7.29289 C10.9024,7.68342 10.9024,8.31658 11.2929,8.70711 C11.6834,9.09763 12.3166,9.09763 12.7071,8.70711 L13.2071,8.20711 C13.5976,7.81658 13.5976,7.18342 13.2071,6.79289 C12.8166,6.40237 12.1834,6.40237 11.7929,6.79289 Z" id="形状" fill="#09244B"></path>
            </g>
        </g>
    </g>
</svg>

<svg xmlns="http://www.w3.org/2000/svg" width="24" height="24"><g fill="none" fill-rule="evenodd"><path d="M24 0v24H0V0h24ZM12.594 23.258l-.012.002-.071.035-.02.004-.014-.004-.071-.036c-.01-.003-.019 0-.024.006l-.004.01-.017.428.005.02.01.013.104.074.015.004.012-.004.104-.074.012-.016.004-.017-.017-.427c-.002-.01-.009-.017-.016-.018Zm.264-.113-.014.002-.184.093-.01.01-.003.011.018.43.005.012.008.008.201.092c.012.004.023 0 .029-.008l.004-.014-.034-.614c-.003-.012-.01-.02-.02-.022Zm-.715.002a.023.023 0 0 0-.027.006l-.006.014-.034.614c0 .012.007.02.017.024l.015-.002.201-.093.01-.008.003-.011.018-.43-.003-.012-.01-.01-.184-.092Z"/><path fill="#09244B" d="M12 2a5 5 0 0 1 4.33 7.5c.427.337.814.722 1.152 1.147l.197.26 1.614-1.614a1 1 0 0 1 1.497 1.32l-.083.094-2 2-.07.064a7 7 0 1 1-13.275 0l-.07-.064-2-2a1 1 0 0 1 1.32-1.497l.095.083 1.614 1.614A7.042 7.042 0 0 1 7.669 9.5 5 5 0 0 1 12 2Zm0 14a1 1 0 1 0 0 2 1 1 0 0 0 0-2Zm0-3a1 1 0 1 0 0 2 1 1 0 0 0 0-2Zm-.207-6.207-.5.5a1 1 0 0 0 1.414 1.414l.5-.5a1 1 0 0 0-1.414-1.414Z"/></g></svg>
